public/files/perm/themes/base/flux/icons/pageview.svg

<svg fill="#282573" height="40" viewBox="0 0 24 24" width="40" xmlns="http://www.w3.org/2000/svg"><path d="m0 0h24v24h-24z" fill="none"/><path d="m11.5 9c-1.38 0-2.5 1.12-2.5 2.5s1.12 2.5 2.5 2.5 2.5-1.12 2.5-2.5-1.12-2.5-2.5-2.5zm10.5-5h-20v16h20zm-5.21 14.21-2.91-2.91c-.69.44-1.51.7-2.39.7-2.48 0-4.49-2.01-4.49-4.5s2.01-4.5 4.5-4.5 4.5 2.01 4.5 4.5c0 .88-.26 1.69-.7 2.39l2.91 2.9z"/></svg>

<svg xmlns="http://www.w3.org/2000/svg" height="40px" viewBox="0 0 24 24" width="40px" fill="#282573"><path d="M0 0h24v24H0V0z" fill="none"/><path d="M11.5 9C10.12 9 9 10.12 9 11.5s1.12 2.5 2.5 2.5 2.5-1.12 2.5-2.5S12.88 9 11.5 9zM22 4H2v16h20V4zm-5.21 14.21l-2.91-2.91c-.69.44-1.51.7-2.39.7C9.01 16 7 13.99 7 11.5S9.01 7 11.5 7 16 9.01 16 11.5c0 .88-.26 1.69-.7 2.39l2.91 2.9-1.42 1.42z"/></svg>
